!!!!SEGMENT: pl-kk--kk-i-471--002_renner-josef--missa-tertia-gloria.krn
!!!cenid: 18xx:1441
!!!COM: Renner, Josef
!!!COM-rismid: pe41020479
!!!CDT:
!!!CNT:
!!!OTL: Missa tertia – Gloria
!!!PDT:
!!!AGN: Sacred; Mass
!!!SMS-siglum: PL-Kk
!!!SMS-shelfmark: Kk.I.471
!!!SMS-shelfwork: 001-002 M
!!!SMS-variant: Partytura PL-Kk Kk.I.471:0002-0010
!!!SMS-altvar: Partytura PL-Kk Kk.I.471:0013-0020; Tenor I PL-Kk Kk.I.471:0024-0027; Tenor I PL-Kk Kk.I.471:0030-0033; Tenor II PL-Kk Kk.I.471:0037-0040; Tenor II PL-Kk Kk.I.471:0043-0046; Bas I PL-Kk Kk.I.471:0050-0053; Bas I PL-Kk Kk.I.471:0056-0059; Bas II PL-Kk Kk.I.471:0063-0066; Bas II PL-Kk Kk.I.471:0070-0073
!!!NIFC-rismid: 1001140695
!!!URL-scan: http://repozytorium.nifc.pl/skany/pl-kk-nut--i-471
!!!ONB-nifc: UWAGA: na podstawie partytury. Proszę uzupełnić pola !!!SMS dot. partytury i głosów. Uwaga: części Mszy: 1. Kyrie, 2. Gloria, 3. Credo, 4. Sanctus, 5. Benedictus, 6. Agnus Dei
**kern	**kern	**kern	**text	**dynam	**kern	**text	**dynam
*part3	*part3	*part2	*part2	*	*part1	*part1	*part1
*staff4	*staff3	*staff2	*staff2	*	*staff1	*staff1	*
*I"[Organo]	*	*I"[Bas I i II]	*	*	*I"[Tenor I i II]	*	*
*I'[org]	*	*I'[Coro B 1, 2]	*	*	*I'[Coro T 1, 2]	*	*
*clefF4	*clefG2	*clefF4	*	*	*clefG2	*	*
*k[b-]	*k[b-]	*k[b-]	*	*	*k[b-]	*	*
*F:	*F:	*F:	*	*	*F:	*	*
*M4/4	*M4/4	*M4/4	*	*	*M4/4	*	*
*met(c)	*met(c)	*met(c)	*	*	*met(c)	*	*
=1	=1	=1	=1	=1	=1	=1	=1
*	*	*	*	*	*^	*	*
!	!	!	!	!	!LO:TX:a:i:t=Allegro	!	!	!
1r	1r	4.F\	.	.	4.f/	4.f\	Et	.
.	.	8F\	.	.	8f/	8f\	in	.
.	.	4A\	.	.	4a/	4a\	ter-	.
.	.	4c\	.	.	4cc/	4cc\	-ra	.
=2	=2	=2	=2	=2	=2	=2	=2	=2
*	*	*^	*	*	*	*	*	*
1r	1r	2A/	2.D\	.	.	2ff/	2dd\	pax	.
.	.	2F/	.	.	.	(<4a/	4a\	ho-	.
.	.	.	4D\	.	.	4b-/	4f\)	.	.
=3	=3	=3	=3	=3	=3	=3	=3	=3	=3
*	*	*	*	*	*	*	*	*^	*
1r	1r	4F/	4C\	.	.	4cc/	4g\	-mi-	.	.
.	.	4E/	4C\	.	.	4cc/	4g\	-ni-	.	.
.	.	2F/	2F\	.	.	4cc/	2a\	-bus	.	.
*	*	*	*	*	*	*	*	*	*above	*
!	!	!	!	!	!	!LO:TX:a:t=P:problem:tekst z adnotacją "above" nad pięciolinią:global	!	!	!	!
.	.	.	.	.	.	[>4ff/	.	.	bo-	.
=4	=4	=4	=4	=4	=4	=4	=4	=4	=4	=4
1r	1r	4F/	4D\	.	.	4ff/]	4a\	bo-	.	.
.	.	4F/	4BB-\	.	.	4dd/	4b-\	-nae	-nae	.
.	.	4D/	4BB-\	.	.	4b-/	4f\	vo-	vo-	.
.	.	4F/	4BB-\	.	.	4dd/	4b-\	-lun-	-lun-	.
=5	=5	=5	=5	=5	=5	=5	=5	=5	=5	=5
1r	1r	2F/	1C	.	.	1cc	1g	-ta-	-ta-	.
.	.	2E/	.	.	.	.	.	.	.	.
=6	=6	=6	=6	=6	=6	=6	=6	=6	=6	=6
*^	*	*	*	*	*	*	*	*	*	*
2r	2ryy	2r	4F/	2ryy	.	.	2cc/	2a\	-tis	-tis	.
*	*	*	*	*	*above	*	*	*	*	*below	*
!	!	!	!LO:TX:a:t=P:problem:tekst z adnotacją "above" nad pięciolinią:global	!	!	!	!	!	!	!	!
.	.	.	4F/	.	Lau-	.	.	.	.	.	.
4r	4ryy	4r	2c/	4r	-da-	.	4r	4r	.	.	.
!	!	!	!	!	!	!	!	!	!	!	!LO:DY:a:rj
4c/	4C\	4g/ 4ee	.	4C\	.	.	4ee/	4g\	Lau-	.	f
*	*	*	*	*	*	*	*	*	*v	*v	*
=7	=7	=7	=7	=7	=7	=7	=7	=7	=7	=7
*	*	*^	*	*	*	*	*	*	*	*
1c	2E\	2gg/	1g	2c/	2E\	-mus	.	2gg/	2g\	-da-	.
.	2C\	2ee/	.	2G/	2C\	te	.	2ee/	2cc\	-mus	.
*	*	*	*	*	*	*below	*	*	*	*	*
=8	=8	=8	=8	=8	=8	=8	=8	=8	=8	=8	=8
2.Bn/	2GG\	2.dd/	1g	2G/	2G\	.	.	2dd/	2bn\	te	.
.	4G\	.	.	4G/	4G\	.	.	4dd/	4b\	Be-	.
4c/	4E\	4ee/	.	4G/	4E\	.	.	4ee/	4cc\	-ne-	.
!!LO:LB:g=original
=9	=9	=9	=9	=9	=9	=9	=9	=9	=9	=9	=9
2d/	1D	2ff/	2a\	2A/	2D\	.	.	2ff/	2dd\	-di-	.
4A/	.	2dd/	2f\	4F/	4D\	.	.	4dd/	4a\	-ci-	.
4Bn/	.	.	.	4F/	4D\	.	.	4dd/	4bn\	-mus	.
*v	*v	*	*	*	*	*	*	*	*	*	*
*	*v	*v	*	*	*	*	*	*	*	*
=10	=10	=10	=10	=10	=10	=10	=10	=10	=10
2C\ 2c	2g/ 2ee	2G/	2C\	.	.	2ee/	2cc\	te,	.
!	!	!	!	!	!	!	!	!	!LO:DY:a:rj
2r	2r	4G/	4G\	.	.	4dd/	4b-X\	A-	p
.	.	4G/	4G\	.	.	4dd/	4b-\	-do-	.
=11	=11	=11	=11	=11	=11	=11	=11	=11	=11
1r	1r	2F/	4D\	.	.	2dd/	2a\	-ra-	.
.	.	.	4C\	.	.	.	.	.	.
.	.	2F/	2BB-\	.	.	2dd/	2b-\	-mus	.
=12	=12	=12	=12	=12	=12	=12	=12	=12	=12
*^	*^	*	*	*	*	*	*	*	*
4r	4ryy	4r	4ryy	4E/	4C\	.	.	4cc/	4g\	te	.
!	!	!	!	!	!	!	!	!LO:TX:a:t=P:problem:niejednoznaczny zapis dynamiki. Być może to przednutka	!	!	!LO:DY:a:rj
2G/	2.C\	2cc/	2e\	4E/	4C\	.	.	4cc/	4g\	Glo-	f
.	.	.	.	4E/	4C\	.	.	4cc/	4g\	-ri-	.
4c/	.	4ee/	4g\	4G/	4C\	.	.	4ee/	4cc\	-fi-	.
=13	=13	=13	=13	=13	=13	=13	=13	=13	=13	=13	=13
1d	1GG	2gg/	2bn\	2Bn/	2G\	.	.	2gg/	2dd\	-ca-	.
!	!	!	!	!	!	!	!	!LO:N:xstem:vis=1	!LO:N:xstem:vis=1	!	!
.	.	2dd/	2b\	2G/	2GG\	.	.	2dd/	2bn\	-mus	.
=14	=14	=14	=14	=14	=14	=14	=14	=14	=14	=14	=14
2c/	2C\	2.ee/	2g\	2G/	2C\	.	.	2ee/	2cc\	te	.
2B-/	2E\	.	2g#X\	2r	2ryy	.	.	2r	2ryy	.	.
.	.	4dd/	.	.	.	.	.	.	.	.	.
*	*	*	*	*v	*v	*	*	*	*	*	*
=15	=15	=15	=15	=15	=15	=15	=15	=15	=15	=15
!	!	!	!	!	!	!	!	!	!	!LO:DY:a:rj
2A/	2AA\	2cc/	2a\	1r	.	.	2cc/	2a\	Gra-	p
2r	2ryy	2r	2ryy	.	.	.	4cc/	4a\	-ti-	.
.	.	.	.	.	.	.	4cc/	4a\	-as	.
*v	*v	*	*	*	*	*	*	*	*	*
*	*v	*v	*	*	*	*	*	*	*
=16	=16	=16	=16	=16	=16	=16	=16	=16
*	*	*^	*	*	*	*	*	*
1r	1r	2E/	1r	.	.	2bn/	2g#X\	a-	.
.	.	4E/	.	.	.	4cc/	4a\	-gi-	.
.	.	4E/	.	.	.	4dd/	4b\	-mus	.
=17	=17	=17	=17	=17	=17	=17	=17	=17	=17
1r	1r	2A/	2AA\	.	.	2ee/	2cc\	ti-	.
.	.	4A/	4AA\	.	.	2cc/	2a\	-bi	.
.	.	4A/	4AA\	.	.	.	.	.	.
!!LO:LB:g=original
=18	=18	=18	=18	=18	=18	=18	=18	=18	=18
1r	1r	2G#X/	2E\	.	.	2ee/	4r	.	.
.	.	.	.	.	.	.	2bn\	prop-	.
!	!	!LO:N:xstem:vis=1	!	!	!	!	!	!	!
.	.	2G#/	4E\	.	.	2ee/	.	.	.
.	.	.	4E\	.	.	.	4b\	-ter	.
=19	=19	=19	=19	=19	=19	=19	=19	=19	=19
*^	*^	*	*	*	*	*	*	*	*
2r	2ryy	2r	2ryy	4A/	4F\	.	.	2cc/	2a\	ma-	.
.	.	.	.	4A/	4F\	.	.	.	.	.	.
2A/	2F\	2cc/	2f\	4A/	4F\	.	.	2cc/	2a\	-gnam	.
.	.	.	.	4A/	4F\	.	.	.	.	.	.
=20	=20	=20	=20	=20	=20	=20	=20	=20	=20	=20	=20
!	!	!	!	!	!	!	!	!	!	!	!LO:DY:a:rj
1c	1FF	1ff	1a	2A/	2F\	.	.	2ff/	2cc\	glo-	f
.	.	.	.	4A/	4F\	.	.	4ff/	4cc\	-ri-	.
.	.	.	.	4A/	4F\	.	.	4ff/	4cc\	-am	.
=21	=21	=21	=21	=21	=21	=21	=21	=21	=21	=21	=21
1c	1C	2ff/	1g	2G/	2C\	.	.	2ff/	2cc\	tu-	.
.	.	2ee/	.	2G/	2C\	.	.	2ee/	2cc\	-am	.
=22	=22	=22	=22	=22	=22	=22	=22	=22	=22	=22	=22
2A/	2D\	2dd/	2f#X\	4r	4ryy	.	.	4r	4r	.	.
.	.	.	.	4F#X/	4D\	.	.	4dd/	4a\	Do-	.
2r	2ryy	2r	2ryy	4F#/	4D\	.	.	4dd/	4a\	-mi-	.
.	.	.	.	4F#/	4D\	.	.	4cc/	4a\	-ne	.
*v	*v	*	*	*	*	*	*	*	*	*	*
*	*v	*v	*	*	*	*	*	*	*	*
=23	=23	=23	=23	=23	=23	=23	=23	=23	=23
1r	1r	2G/	2G\	.	.	2bn/	2g\	De-	.
.	.	2G/	2G\	.	.	2dd/	2b\	-us,	.
=24	=24	=24	=24	=24	=24	=24	=24	=24	=24
1r	1r	2G/	2C\	.	.	2ee/	2cc\	Rex	.
.	.	2F#X/	2D\	.	.	(>4dd/	(<4bn\	coe-	.
.	.	.	.	.	.	4cc/)	4a\)	.	.
=25	=25	=25	=25	=25	=25	=25	=25	=25	=25
1r	1r	2G/	2G\	.	.	2bn/	2g\	-les-	.
.	.	2G/	2G\	.	.	2dd/	2b\	-tis	.
=26	=26	=26	=26	=26	=26	=26	=26	=26	=26
*^	*^	*	*	*	*	*	*	*	*
1c	2C\	2ee/	1g	2G/	2C\	.	.	2ee/	2cc\	De-	.
.	2E\	2cc/	.	2G/	2E\	.	.	2cc/	2cc\	-us	.
=27	=27	=27	=27	=27	=27	=27	=27	=27	=27	=27	=27
2d/	2D\	2ff/	2a\	2A/	2D\	.	.	2ff/	2dd\	Pa-	.
4A/	4D\	2dd/	2f\	2F/	4D\	.	.	4dd/	4a\	-ter	.
4B-/	4BB-\	.	.	.	4BB-\	.	.	4dd/	4b-X\	o-	.
!!LO:PB:g=original
=28	=28	=28	=28	=28	=28	=28	=28	=28	=28	=28	=28
2A/	2F\	1cc	2f\	1r	2F\	.	.	2cc/	2a\	-mni-	.
2G/	2C\	.	2e\	.	2E\	.	.	2cc/	2g\	-po-	.
*v	*v	*	*	*	*	*	*	*	*	*	*
*	*v	*v	*	*	*	*	*	*	*	*
=29	=29	=29	=29	=29	=29	=29	=29	=29	=29
1r	1r	2A/	2F\	.	.	1cc	1a	-tens	.
.	.	4A/	2r	.	.	.	.	.	.
.	.	4A/	.	.	.	.	.	.	.
=30	=30	=30	=30	=30	=30	=30	=30	=30	=30
1r	1r	2A/	1r	.	.	1r	2cc\	Do-	.
.	.	2F/	.	.	.	.	4cc\	-mi-	.
.	.	.	.	.	.	.	4cc\	-ne	.
=31	=31	=31	=31	=31	=31	=31	=31	=31	=31
1r	1r	2B-/	1r	.	.	1r	2dd\	Fi-	.
.	.	2A/	.	.	.	.	2cc\	-li	.
=32	=32	=32	=32	=32	=32	=32	=32	=32	=32
1r	1r	4.B-/	1r	.	.	1r	4.dd\	u-	.
.	.	8A/	.	.	.	.	8cc\	-ni	.
.	.	4G/	.	.	.	.	4b-\	ge-	.
.	.	4F/	.	.	.	.	4a\	-ni-	.
=33	=33	=33	=33	=33	=33	=33	=33	=33	=33
*^	*^	*	*	*	*	*	*	*	*
*	*	*	*	*	*	*	*	*	*	*^	*
*	*	*	*	*	*	*	*	*	*	*	*above	*
!	!	!	!	!	!	!	!	!LO:TX:t=P:problem:zapis poprawiany	!	!	!	!
1G	1C	1cc	1e	2E/	1C	.	.	1cc	2g\	-te	Je-	.
.	.	.	.	2E/	.	.	.	.	2g\	Je-	.	.
=34	=34	=34	=34	=34	=34	=34	=34	=34	=34	=34	=34	=34
[>1Bn	1GG	1dd	1g	1G	1GG	.	.	1dd	1bn	-su	-su	.
=35	=35	=35	=35	=35	=35	=35	=35	=35	=35	=35	=35	=35
!LO:N:xstem:vis=1	!	!	!	!	!	!	!	!LO:TX:t=P:problem:zapis poprawiany	!	!	!	!
2B/]	2E\	2ee/	2g\	2G/	2E\	.	.	2ee/	2bn\	Chri-	Chri-	.
[>2d/	2D\	2ff#X/	2a\	2A/	2D\	.	.	2ff#X/	2dd\	.	.	.
=36	=36	=36	=36	=36	=36	=36	=36	=36	=36	=36	=36	=36
1d]	1GG	1gg	1bn	1Bn	1G	.	.	1gg	1dd	-ste.	-ste	.
*	*	*	*	*	*	*	*	*	*	*	*below	*
*	*	*	*	*	*	*	*	*	*	*v	*v	*
*v	*v	*	*	*	*	*	*	*	*	*	*
*	*v	*v	*	*	*	*	*	*	*	*
=37	=37	=37	=37	=37	=37	=37	=37	=37	=37
1r	1r	2G/	1r	.	.	1r	2bn\	Do-	.
.	.	4G/	.	.	.	.	4b\	-mi-	.
.	.	4G/	.	.	.	.	4b\	-ne	.
!!LO:LB:g=original
=38	=38	=38	=38	=38	=38	=38	=38	=38	=38
*	*	*	*	*	*	*	*	*^	*
*	*	*	*	*	*	*	*	*	*above	*
1r	1r	2F#X/	2D\	.	.	2dd/	2a\	De-	Do-	.
.	.	2F#/	4D\	.	.	4dd/	2a\	-us	-mi-	.
.	.	.	4D\	.	.	4dd/	.	.	-ne	.
=39	=39	=39	=39	=39	=39	=39	=39	=39	=39	=39
1r	1r	2G/	2C\	.	.	2ee/	2cc\	a-	De-	.
.	.	2G/	2C\	.	.	2ee/	2cc\	-gnus	-us	.
=40	=40	=40	=40	=40	=40	=40	=40	=40	=40	=40
1r	1r	2A/	2F\	.	.	2ff/	2cc\	De-	a-	.
.	.	2F/	2F\	.	.	2cc/	2a\	-i	-gnus	.
=41	=41	=41	=41	=41	=41	=41	=41	=41	=41	=41
1r	1r	2c/	2C\	.	.	2ee/	2g\	Fi-	De-	.
.	.	4G/	4C\	.	.	4cc/	4e\	-li-	-i	.
.	.	4E/	4C\	.	.	[>4cc/	4g\	-us	Fi-	.
=42	=42	=42	=42	=42	=42	=42	=42	=42	=42	=42
1r	1r	4E/	4GG\	.	.	4cc/]	1g	Pa-	.	.
.	.	4D/	4GG\	.	.	4bn/	.	.	-li-	.
.	.	4E/	2GG\	.	.	2cc/	.	.	-us	.
.	.	4F/	.	.	.	.	.	.	.	.
=43	=43	=43	=43	=43	=43	=43	=43	=43	=43	=43
*^	*^	*	*	*	*	*	*	*	*	*
2r	2ryy	2r	2ryy	1E	1C	.	.	2cc/	1g	-tris	Pa-	.
4r	4ryy	4r	4ryy	.	.	.	.	2g/	.	.	-tris.	.
4G/	4C\	4cc/	4e\	.	.	.	.	.	.	.	.	.
*	*	*	*	*	*	*	*	*	*	*	*below	*
*	*	*	*	*	*	*	*	*	*	*v	*v	*
*	*	*	*	*v	*v	*	*	*	*	*	*
*	*	*	*	*	*	*	*v	*v	*	*
=44	=44	=44	=44	=44	=44	=44	=44	=44	=44
4c/	4C\	4g/ 4ee	2ryy	1r	.	.	1r	.	.
2A/	4D\	4f/ 4dd	.	.	.	.	.	.	.
.	2E\	4cc/	2e\	.	.	.	.	.	.
4G#X/	.	4bn/	.	.	.	.	.	.	.
*	*	*v	*v	*	*	*	*	*	*
=45	=45	=45	=45	=45	=45	=45	=45	=45
*	*	*	*^	*	*	*^	*	*
*	*	*	*	*	*	*	*	*	*^	*
*	*	*	*	*	*	*	*	*	*above	*	*
2.A\	2.AA\	2.e/ 2.cc	2r	2ryy	.	.	2r	2ryy	.	.	.
!	!	!	!	!LO:TX:a:t=P:problem:oznaczenie dynamiczne na pięciolinii	!	!LO:DY:a:rj	!LO:TX:a:t=P:problem:oznaczenie dynamiczne na pięciolinii	!	!	!	!LO:DY:a:rj
.	.	.	2A/	2A\	.	pp	2cc/	2cc\	Qui	Qui	pp
4r	4ryy	4r	.	.	.	.	.	.	.	.	.
*v	*v	*	*	*	*	*	*	*	*	*	*
=46	=46	=46	=46	=46	=46	=46	=46	=46	=46	=46
1r	1r	2F/	2D\	.	.	2dd/	2a\	tol-	tol-	.
.	.	2F/	2D\	.	.	4.dd/	2a\	-lis	-lis	.
.	.	.	.	.	.	8cc/	.	.	pec-	.
!!LO:LB:g=original
=47	=47	=47	=47	=47	=47	=47	=47	=47	=47	=47
1r	1r	4r	4ryy	.	.	2bn/	4r	.	-ca-	.
.	.	4E/	4E\	.	.	.	4g\	pec-	.	.
.	.	4E/	4E\	.	.	2b/	4g\	-ca-	-ta	.
.	.	4E/	4E\	.	.	.	4g\	-ta	.	.
=48	=48	=48	=48	=48	=48	=48	=48	=48	=48	=48
1r	1r	2E/	2AA\	.	.	2cc/	2a\	mun-	mun-	.
.	.	2E/	2AA\	.	.	2cc/	2a\	-di	-di	.
*	*	*	*	*	*	*	*	*	*below	*
*	*	*	*	*	*	*	*	*v	*v	*
*	*	*v	*v	*	*	*	*	*	*
=49	=49	=49	=49	=49	=49	=49	=49	=49
1r	1r	1r	.	.	2.ee/	2.cc\	mi-	.
.	.	.	.	.	4dd/	4b-\	-se-	.
=50	=50	=50	=50	=50	=50	=50	=50	=50
*	*	*^	*	*	*	*	*	*
*	*	*	*	*above	*	*	*	*	*
1r	1r	2.A/	1r	mi-	.	2cc/	2a\	-re-	.
.	.	.	.	.	.	2cc/	2a\	-re	.
.	.	4A/	.	-se-	.	.	.	.	.
=51	=51	=51	=51	=51	=51	=51	=51	=51	=51
!	!	!LO:N:xstem:vis=1	!	!	!	!	!	!	!
1r	1r	2A/	2.F\	-re-	.	[>1ff	(<1cc	no-	.
.	.	2A/	.	-re	.	.	.	.	.
.	.	.	4E\	.	.	.	.	.	.
=52	=52	=52	=52	=52	=52	=52	=52	=52	=52
*^	*^	*	*	*	*	*	*	*	*
2r	2ryy	2r	2ryy	1A	4D\	no-	.	1ff]	2.dd\)	.	.
.	.	.	.	.	4D\	.	.	.	.	.	.
4d/	2D\	2ff/	2a\	.	2D\	.	.	.	.	.	.
4c/	.	.	.	.	.	.	.	.	4cc\	.	.
=53	=53	=53	=53	=53	=53	=53	=53	=53	=53	=53	=53
*	*	*	*	*	*	*	*	*	*	*^	*
*	*	*	*	*	*	*	*	*	*	*	*above	*
2Bn/	2E\	2ee/	2g#X\	2G#X/	2E\	-bis	.	2ee;>/	2bn\	-bis.	.	.
2r	2ryy	2r	2ryy	2A/	2ryy	.	.	2cc/	2cc\	Qui	Qui	.
*	*	*	*	*	*	*below	*	*	*	*	*	*
*v	*v	*	*	*	*	*	*	*	*	*	*	*
*	*v	*v	*	*	*	*	*	*	*	*	*
=54	=54	=54	=54	=54	=54	=54	=54	=54	=54	=54
1r	1r	2F/	2D\	.	.	2dd/	2a\	tol-	tol-	.
.	.	2F/	2D\	.	.	4.dd/	2a\	-lis	-lis	.
.	.	.	.	.	.	8cc/	.	.	pec-	.
=55	=55	=55	=55	=55	=55	=55	=55	=55	=55	=55
1r	1r	4r	4ryy	.	.	2bn/	4r	.	-ca-	.
.	.	4E/	4E\	.	.	.	4g#X\	pec-	.	.
.	.	4E/	4E\	.	.	2b/	4g#\	-ca-	-ta	.
.	.	4E/	4E\	.	.	.	4g#\	-ta	.	.
=56	=56	=56	=56	=56	=56	=56	=56	=56	=56	=56
1r	1r	2E/	2AA\	.	.	2cc/	2a\	mun-	mun-	.
.	.	2E/	2AA\	.	.	2cc/	2a\	-di	-di	.
*	*	*	*	*	*	*	*	*	*below	*
*	*	*	*	*	*	*	*	*v	*v	*
!!LO:PB:g=original
=57	=57	=57	=57	=57	=57	=57	=57	=57	=57
*^	*^	*	*	*	*	*	*	*	*
!	!	!	!	!	!	!	!	!LO:TX:a:i:t=Piu mosso	!	!	!LO:DY:a:rj
[>1c	1FF	2.ff/	2.a\	2.A/	2.F\	.	.	2.ff/	2.cc\	sus-	f
.	.	4cc/	4a\	4A/	4F\	.	.	4cc/	4cc\	-ci-	.
=58	=58	=58	=58	=58	=58	=58	=58	=58	=58	=58	=58
1c]	2F\	1cc	2a\	2A/	2F\	.	.	2cc/	2cc\	-pe	.
.	2E\	.	2g\	4G/	4E\	.	.	4cc/	4g\	de-	.
.	.	.	.	4G/	4E\	.	.	4cc/	4g\	-pre-	.
=59	=59	=59	=59	=59	=59	=59	=59	=59	=59	=59	=59
4A/	4D\	4dd/	4f\	4F/	4D\	.	.	4dd/	4a\	-ca-	.
2c/	4C\	4ee/	4g\	4G/	4E\	.	.	4ee/	4cc\	-ti-	.
.	4F\	4ff/	4a\	4A/	4F\	.	.	4ff/	4cc\	-o-	.
4A/	4FF\	4cc/	4f\	4F/	4F\	.	.	4cc/	4a\	-nem	.
=60	=60	=60	=60	=60	=60	=60	=60	=60	=60	=60	=60
1G	1C	1cc	2f\	2F/	1C	.	.	1cc	1g	no-	.
.	.	.	2e\	2E/	.	.	.	.	.	.	.
=61	=61	=61	=61	=61	=61	=61	=61	=61	=61	=61	=61
!LO:N:xstem:vis=1	!	!	!	!	!	!	!	!	!	!	!
2A/	1FF	2cc/	2f\	2F/	2F\	.	.	2cc/	2a\	-stram.	.
!	!	!	!	!	!	!	!	!	!	!	!LO:DY:a:rj
2r	.	2r	2ryy	2r	2ryy	.	.	2cc/	2a\	Qui	p
*v	*v	*	*	*	*	*	*	*	*	*	*
*	*v	*v	*	*	*	*	*	*	*	*
=62	=62	=62	=62	=62	=62	=62	=62	=62	=62
1r	1r	2r	2ryy	.	.	2b-/	2g\	se-	.
.	.	2c/	2A\	Qui	.	2a/	2f\	-des	.
=63	=63	=63	=63	=63	=63	=63	=63	=63	=63
1r	1r	2B-/	2G\	se-	.	2r	2r	.	.
.	.	2A/	2F\	-des	.	2cc/	2a\	ad	.
=64	=64	=64	=64	=64	=64	=64	=64	=64	=64
1r	1r	2r	2ryy	.	.	2.dd/	2.b-\	de-	.
.	.	2B-/	2G\	ad	.	.	.	.	.
.	.	.	.	.	.	4ee/	4b-\	-xte-	.
=65	=65	=65	=65	=65	=65	=65	=65	=65	=65
1r	1r	4.A/	4.F\	dex-	.	2ff/	2cc\	-ram	.
.	.	8G/	8E\	-te-	.	.	.	.	.
.	.	2F/	2D\	-ram	.	[>2ff/	(<4cc\	Pa-	.
.	.	.	.	.	.	.	4bn\)	.	.
=66	=66	=66	=66	=66	=66	=66	=66	=66	=66
1r	1r	2G/	2C\	Pa-	.	2ff/]	1cc	-tris	.
.	.	2G/	2C\	-tris	.	2ee/	.	.	.
*	*	*	*	*	*	*v	*v	*	*
!!LO:LB:g=original
=67	=67	=67	=67	=67	=67	=67	=67	=67
1r	1r	2.c/	2.A\	mi-	.	1r	.	.
.	.	4B-/	4G\	-se-	.	.	.	.
=68	=68	=68	=68	=68	=68	=68	=68	=68
*	*	*	*	*	*	*^	*	*
!	!	!	!	!	!	!	!	!	!LO:DY:a:rj
1r	1r	(>2A/	(<2F\	-re-	.	2.cc/	2.cc\	mi-	p
.	.	2G/)	2E\)	.	.	.	.	.	.
.	.	.	.	.	.	4cc/	4cc\	-se-	.
=69	=69	=69	=69	=69	=69	=69	=69	=69	=69
1r	1r	2F/	(<2D\	-re	.	2dd/	2a\	-re-	.
!	!	!LO:N:xstem:vis=1	!	!	!	!	!	!	!
.	.	2G/	2C\)	.	.	2ee/	2cc\	-re	.
=70	=70	=70	=70	=70	=70	=70	=70	=70	=70
1r	1r	1A	1F	no-	.	1ff	1cc	no-	.
=71	=71	=71	=71	=71	=71	=71	=71	=71	=71
1r	1r	1G	1C	-bis.	.	1ee	1cc	-bis.	.
=72||	=72||	=72||	=72||	=72||	=72||	=72||	=72||	=72||	=72||
*^	*^	*	*	*	*	*	*	*	*
!	!	!	!	!	!	!	!	!LO:TX:i:a:t=Allegro	!	!	!
4A/	4F\	4f/	4c\	4F/	4F\	.	.	4f/	4f\	Quo-	.
4c/	4C\	4a/	4f\	4A/	4A\	.	.	4a/	4a\	-ni-	.
!	!	!	!LO:N:xstem:vis=1	!	!	!	!	!	!	!	!
4f/	4AA\	4cc/	2a\	4c/	4c\	.	.	4cc/	4cc\	-am	.
4c/	4FF\	4ff/	.	4A/	4F\	.	.	4ff/	4cc\	tu	.
=73	=73	=73	=73	=73	=73	=73	=73	=73	=73	=73	=73
1c	1C	1ee	1g	2G/	2C\	.	.	2ee/	2cc\	so-	.
!	!	!	!	!LO:N:xstem:vis=1	!	!	!	!	!	!	!
.	.	.	.	2G/	2C\	.	.	2ee/	2cc\	-lus	.
=74	=74	=74	=74	=74	=74	=74	=74	=74	=74	=74	=74
2A/	2D\	2ff/	2a\	2A/	2F\	.	.	2ff/	2cc\	san-	.
4A/	4F\	2cc/	2c\	4F/	4F\	.	.	4cc/	4a\	-ctus	.
4G/	4E\	.	.	4E/	4E\	.	.	4cc/	4g\	tu	.
*	*	*v	*v	*	*	*	*	*	*	*	*
=75	=75	=75	=75	=75	=75	=75	=75	=75	=75	=75
2A/	2D\	2f/ 2dd	2F/	2D\	.	.	2dd/	2a\	so-	.
2C\ [>2c	2ryy	2g/ 2ee	2G/	2C\	.	.	2ee/	2cc\	-lus	.
=76	=76	=76	=76	=76	=76	=76	=76	=76	=76	=76
*	*	*^	*	*	*	*	*	*	*	*
2c/]	2F\	4ff/	2a\	4A/	4F\	.	.	4ff/	4cc\	Do-	.
.	.	4cc/	.	4F/	4F\	.	.	4cc/	4a\	-mi-	.
4A/	4F\	2cc/	4f\	4F/	4F\	.	.	4cc/	4a\	-nus.	.
4G/	4C\	.	4e\	4c/	4c\	.	.	4cc/	4cc\	Tu	.
!!LO:LB:g=original
=77	=77	=77	=77	=77	=77	=77	=77	=77	=77	=77	=77
1c	1FF	2cc/	2e\	2c/	2A\	.	.	2ee/	2cc\	so-	.
.	.	4ff/	2a\	4c/	4A\	.	.	4ff/	4cc\	-lus	.
.	.	4ff#X/	.	4c/	4A\	.	.	4ff#X/	4cc\	al-	.
=78	=78	=78	=78	=78	=78	=78	=78	=78	=78	=78	=78
!	!LO:N:xstem:vis=1	!	!	!	!	!	!	!	!	!	!
4Bn/	2G\	4gg/	4dd\	4Bn/	4G\	.	.	4gg/	4dd\	-tis-	.
4G/	.	4dd/	4bn\	4G/	4G\	.	.	4dd/	4bn\	-si-	.
2G/	2C\	2ee/	2cc\	2G/	2C\	.	.	2ee/	2cc\	-mus	.
=79	=79	=79	=79	=79	=79	=79	=79	=79	=79	=79	=79
!	!	!	!LO:N:xstem:vis=1	!	!	!	!	!	!	!	!
2A/	2F\	2ff/	2cc	2A/	2F\	.	.	2ff/	2cc\	Je-	.
2F/	2F\	2cc/	2a\	2F/	2F\	.	.	2cc/	2a\	-su	.
=80	=80	=80	=80	=80	=80	=80	=80	=80	=80	=80	=80
2F/	1C	1cc	1g	2F/	1C	.	.	1cc	1g	Chri-	.
2E/	.	.	.	2E/	.	.	.	.	.	.	.
=81	=81	=81	=81	=81	=81	=81	=81	=81	=81	=81	=81
1c	1F	4cc/	4a\	4F/	4F\	.	.	4cc/	4a\	-ste.	.
!	!	!	!	!	!	!	!	!	!LO:TX:a:t=P:problem:niejednoznaczny zapis dynamiki. Być może to przednutka	!	!LO:DY:a:rj
.	.	2a/	2f\	4F/	4F\	.	.	4a/	4a\	Cum	f
.	.	.	.	4F/	4F\	.	.	4a/	4a\	san-	.
.	.	4b-/	4g\	4G/	4F\	.	.	4b-/	4b-\	-cto	.
=82	=82	=82	=82	=82	=82	=82	=82	=82	=82	=82	=82
!	!LO:N:xstem:vis=1	!	!	!	!	!	!	!	!	!	!
4.c/	2E\	2cc/	2g\	4.G/	4.E\	.	.	4.cc/	4.cc\	Spi-	.
8e/	.	.	.	8G/	8E\	.	.	8cc/	8cc\	-ri-	.
2f/	2D\	2dd/	2a\	4F/	4D\	.	.	4dd/	4a\	-tu	.
.	.	.	.	4F/	4D\	.	.	4dd/	4a\	in	.
=83	=83	=83	=83	=83	=83	=83	=83	=83	=83	=83	=83
1c	1C	1ee	1g	4G/	4C\	.	.	4ee/	4cc\	glo-	.
.	.	.	.	8G/	8C\	.	.	8ee/	8cc\	-ri-	.
.	.	.	.	8G/	8C\	.	.	8ee/	8cc\	-a	.
.	.	.	.	4G/	4C\	.	.	4ee/	4cc\	De-	.
.	.	.	.	4G/	4C\	.	.	4ee/	4cc\	-i	.
=84	=84	=84	=84	=84	=84	=84	=84	=84	=84	=84	=84
1c	2FF\	2ff/	1a	2A/	2F\	.	.	2ff/	2cc\	Pa-	.
.	2F\	2cc/	.	2A/	2F\	.	.	2cc/	2cc\	-tris	.
=85	=85	=85	=85	=85	=85	=85	=85	=85	=85	=85	=85
2d/	2BB-\	2ff/	2b-\	2B-/	2B-\	.	.	2ff/	2dd\	A-	.
2B-/	2BB-\	2dd/	2f\	2B-/	2B-\	.	.	2dd/	2dd\	-men	.
!!LO:PB:g=original
=86	=86	=86	=86	=86	=86	=86	=86	=86	=86	=86	=86
[>1c	1GG	1ee	1g	1B-	1G	.	.	1ee	1cc	A-	.
=87	=87	=87	=87	=87	=87	=87	=87	=87	=87	=87	=87
1c]	1FF	1ff	1a	1A	1F	.	.	1ff	1cc	-men.	.
=88	=88	=88	=88	=88	=88	=88	=88	=88	=88	=88	=88
1B-	1BB-	1dd	1f	1F	1BB-	.	.	1dd	1b-	A-	.
=89	=89	=89	=89	=89	=89	=89	=89	=89	=89	=89	=89
1A;>	1FF	1cc;>	1f	1F;>	1FF	.	.	1cc;>	1a	-men.	.
*v	*v	*	*	*v	*v	*	*	*v	*v	*	*
*	*v	*v	*	*	*	*	*	*
==	==	==	==	==	==	==	==
*-	*-	*-	*-	*-	*-	*-	*-
!!!system-decoration: [s1,s2]{s3,s4}
!!!RDF**kern: > = above
!!!RDF**kern: < = below
!!!EED: Mateusz Mrugas
!!!EST: 2021-01-26
!!!ENC: Andrzej Gręziak
!!!END: 2021-01-24
